X: 0507
T: Scottish Ramble
P: Scottish Ramble
C:Caledonian Country Dances c.1754
B:RSCDS 5-7
Z:Anselm Lingnau <anselm@strathspey.org>
R:Strathspey (8x32)
M:C
L:1/8
K:A
E/|"A"A/A/A A>c e>c A>c|"E7"B/B/B G>B d2 c>B|\
   "A"A/A/A A>c e>c "E7"d>B|"A"c>e "E7"B>c "A"A/A/A A>E|
   "A"A/A/A A>c e>c A>c|"E7"B/B/B G>B d2 c>B|\
   "A"A/A/A A>c e>c "E7"d>B|"A"c>e "E7"B>c "A"A/A/A A3/2||
d/|"A"c>e ef/g/ a2 e>c|a>e c>A "E7"B/B/B B>d|\
   "A"c>A e>A a>e c>A|"E7"c>e B>c "A"A/A/A A>d|
   "A"c>e ef/g/ a2 e>c|a>e c>A "E7"B/B/B B>d|\
   "A"c>A e>A "F#m"a>e "A"c>A|"E7"c>e B>c "A"A/A/A A3/2|]
%%center Book05/0507-Scottish_Ramble-AL.abc

%%sep 1 1 500
%%sep 1 1 500

